X: 154
T:Hunt's Quadrille. CJF.154
M:2/4
L:1/16
Q:120
C:"from Hunts 9th Oct"
S:C.J.Fox MS, 1829/33, Beverley,E.Yorks.
R:Quadrille
O:England
A:East Yorkshire
B:Kidson Coll.Mitchell Lib.M1805
N:Just Quadrille in MS..."from Hunts 9th Oct" is on title line. - PJ
Z:vmp.P J Headford 2000
K:D
a2aa a2a2|a2f2f4|e2ee e2e2|f2d2d4|!
a2aa a2a2|a2f2 f2de|f2f2 {f}edef|d2d2d4h||!
AA|g2ee fe^de|b2a2 fdfa|d'2aa f2dd|A2a2z2AA|!
g2ee fe^de|b2a2f2 de|f2f2 edef|d2f2d2z2"$"||!
a2aa a2a2|g6f2|e2d2c2d2|e2A2A4|!
a2aa a2a2|g6f2|e2d2c2d2|e6"    $"A2|]
